app/assets/svg/icons/flame.svg

<svg width="44" height="47" viewBox="0 0 44 47" fill="none" xmlns="http://www.w3.org/2000/svg">
<g id="Frame" clip-path="url(#clip0_616_2081)">
<g id="Vector">
<path d="M19.7785 0.696797C19.4543 0.529588 19.0862 0.46723 18.7251 0.518346C18.3639 0.569462 18.0275 0.731527 17.7625 0.98213C17.5013 1.22949 17.3286 1.55574 17.2708 1.91078C17.213 2.26583 17.2733 2.63003 17.4425 2.94746C18.4404 4.84903 18.9662 6.96278 18.9755 9.11029C18.9848 11.2578 18.4773 13.376 17.4958 15.2861C17.465 15.3385 17.4209 15.3818 17.368 15.4118C17.3151 15.4417 17.2553 15.4573 17.1945 15.4568C17.1334 15.456 17.0736 15.439 17.0211 15.4077C16.9687 15.3763 16.9255 15.3316 16.8958 15.2781C16.5358 14.6202 16.2769 13.9118 16.1278 13.1768C16.0914 13.0059 16.0113 12.8473 15.8954 12.7165C15.7795 12.5856 15.6318 12.487 15.4665 12.4301C15.3007 12.3733 15.1235 12.3581 14.9505 12.386C14.7775 12.4139 14.614 12.484 14.4745 12.5901C12.5624 14.0731 11.1619 16.1169 10.4692 18.4355C9.78581 20.7402 9.85116 23.2023 10.6558 25.4675C11.4259 27.6148 12.874 29.4532 14.7812 30.7048C16.7092 31.9741 18.9892 32.5981 21.2958 32.4861C27.1038 32.4861 31.1625 29.6088 32.4425 24.5981C34.3358 17.1981 29.6878 5.8248 19.7785 0.696797ZM26.2852 24.6781C26.1151 25.7934 25.5256 26.8016 24.6372 27.4968C23.7375 28.2031 22.6075 28.55 21.4665 28.4701C20.3732 28.4701 19.3092 28.0968 18.4612 27.4035C17.6226 26.7217 17.0551 25.7627 16.8612 24.6995C16.8416 24.5897 16.8499 24.4767 16.8853 24.371C16.9207 24.2652 16.9821 24.17 17.0638 24.0941C17.1472 24.0172 17.2482 23.9619 17.3579 23.9331C17.4676 23.9042 17.5827 23.9028 17.6932 23.9288C18.3812 23.9181 19.0532 23.7395 19.6558 23.4088C20.2585 23.0781 20.7625 22.6088 21.1252 22.0381C21.5448 21.6117 21.8279 21.07 21.9386 20.4821C22.0492 19.8942 21.9824 19.2866 21.7465 18.7368C21.6791 18.6166 21.6506 18.4785 21.6649 18.3414C21.6793 18.2044 21.7357 18.0751 21.8265 17.9715C21.919 17.8665 22.0411 17.792 22.1768 17.7578C22.3124 17.7235 22.4552 17.7311 22.5865 17.7795C23.9012 18.3661 24.9785 19.3608 25.6452 20.6088C26.3144 21.8522 26.5402 23.2866 26.2852 24.6755" fill="url(#paint0_radial_616_2081)"/>
<path d="M11.6996 33.4645C11.0701 32.5929 12.0716 31.4778 13.0056 32.0103L13.7486 32.4339C18.8351 35.3339 25.1118 35.2163 30.0934 32.1395C31.007 31.5752 32.0525 32.6478 31.4568 33.5413L23.5984 45.329C22.8245 46.4899 21.1298 46.5216 20.3129 45.3906L11.6996 33.4645Z" fill="url(#paint1_radial_616_2081)"/>
</g>
</g>
<defs>
<radialGradient id="paint0_radial_616_2081" cx="0" cy="0" r="1" gradientUnits="userSpaceOnUse" gradientTransform="translate(12.8576 7.22955) rotate(68.9577) scale(35.8079 22.9047)">
<stop stop-color="white"/>
<stop offset="1" stop-color="white" stop-opacity="0.62"/>
</radialGradient>
<radialGradient id="paint1_radial_616_2081" cx="0" cy="0" r="1" gradientUnits="userSpaceOnUse" gradientTransform="translate(12.8576 7.22955) rotate(68.9577) scale(35.8079 22.9047)">
<stop stop-color="white"/>
<stop offset="1" stop-color="white" stop-opacity="0.62"/>
</radialGradient>
<clipPath id="clip0_616_2081">
<rect width="44" height="46" fill="white" transform="translate(0 0.499023)"/>
</clipPath>
</defs>
</svg>

<svg width="44" height="47" viewBox="0 0 44 47" fill="none" xmlns="http://www.w3.org/2000/svg">
  <g clip-path="url(#a)">
    <path d="M19.78.7a1.76 1.76 0 0 0-2.02.28 1.64 1.64 0 0 0-.32 1.97 13.39 13.39 0 0 1 .06 12.34.35.35 0 0 1-.6-.01 7.47 7.47 0 0 1-.77-2.1 1.01 1.01 0 0 0-.66-.75 1.07 1.07 0 0 0-1 .16 11.6 11.6 0 0 0-4 5.85c-.68 2.3-.62 4.76.19 7.03a10.5 10.5 0 0 0 4.12 5.23c1.93 1.27 4.2 1.9 6.52 1.79 5.8 0 9.86-2.88 11.14-7.9C34.34 17.2 29.7 5.83 19.78.7Zm6.5 23.98a4.43 4.43 0 0 1-1.64 2.82c-.9.7-2.03 1.05-3.17.97-1.1 0-2.16-.37-3-1.07a4.53 4.53 0 0 1-1.6-2.7.67.67 0 0 1 .49-.77 4.21 4.21 0 0 0 3.77-1.9 3.01 3.01 0 0 0 .62-3.3.67.67 0 0 1 .43-.97.7.7 0 0 1 .4.02 6.43 6.43 0 0 1 3.07 2.83c.66 1.24.89 2.68.64 4.07" fill="url(#b)"/>
    <path d="M11.7 33.46c-.63-.87.37-1.98 1.3-1.45l.75.42a16.02 16.02 0 0 0 16.34-.3c.92-.55 1.96.52 1.37 1.41L23.6 45.33a2 2 0 0 1-3.29.06L11.7 33.46Z" fill="url(#c)"/>
  </g>
  <defs>
    <radialGradient id="b" cx="0" cy="0" r="1" gradientUnits="userSpaceOnUse" gradientTransform="matrix(13 33 -21 8 12.86 7.23)">
      <stop stop-color="#fff"/>
      <stop offset="1" stop-color="#fff" stop-opacity=".62"/>
    </radialGradient>
    <radialGradient id="c" cx="0" cy="0" r="1" gradientUnits="userSpaceOnUse" gradientTransform="matrix(13 33 -21 8 12.86 7.23)">
      <stop stop-color="#fff"/>
      <stop offset="1" stop-color="#fff" stop-opacity=".62"/>
    </radialGradient>
    <clipPath id="a">
      <path fill="#fff" d="M0 .5h44v46H0z"/>
    </clipPath>
  </defs>
</svg>
